X:80
T:Farandole di Tarasca?re
O:France
A:Provence
C:Trad.
C:2e partie M. Mar?chal
R:Farandole
M:6/8
Q:3/8=90
K:Fmajor
V:1
FAc|FAc fed|(c2c) dBd|cBA GcB|A2F FAc|FAc fed|(c2c) fef|(g2g) fed|
c3 cdc|cBA GcB|A2F A2A|A2c cBA|G3 cdc|cBA GcB|A2F fed|dcA cBG|
F3 ||[K:Bb]fgf|f2d fgf|f2d ddd|dcB cBA|c2B fgf|f2d fgf|f2d ddd|dcB cBA|B3|]
V:2
A2A| A2G A2B| (A2A) B3| G2F e2d| c2!breath!A A2A| A2G A2B| (A2!breath!A) A3| B3 dcB| 
A2z .e2.e|.e2.c .e2.g|.f2!breath!.f .c2.c| .c2.A .G2.F| !breath!E3 .e2.e|.e2.c .e2.g|(f2!breath!f) d2g| .f2.f .e2.e|
f2z ||[K:Bb] d2d|Ld2 ((3B/d/f/) d2d| (Ld2B) f2f| (f2d) e2f| (e2d) d2d| Ld2 ((3B/d/f/) d2d| (Ld2B) f2f| (f2d) e2f|d3|]
<end>
<start>
